X: 701
T: Zhuyngtai xiashan
L: 1/8
M: 2/4
K: Eb
e f d c [I:setbarnb 1]| 
B G e c | 
B G F G/ G/ | 
F> G F3/ G/ | 
e e c B | 
C/ E/ B,/ C/E2- | 
E e B/ c/ B/ G/ | 
F B/ G/ F D | 
G B G F | 
E E E3/ g/ | 
f eB2- | 
B2A A | 
G/ G/ F/ G/ e e | 
B G F E | 
G/ B/ G/ F/ E F/ G/ | 
C4 | 
e2e2 | 
B2G e | 
B G F G | 
F G F G | 
e2c B | 
C2E2- | 
E F G B | 
F2G2 | 
G FE2 | 
G e c e | 
B4 | 
G G G B | 
c2B G | 
F2G F | 
E4 |]

@@@ Tune index: 9575
